public/img/top/tex-9.svg

<svg fill="none" height="205" viewBox="0 0 187 205" width="187" xmlns="http://www.w3.org/2000/svg" xmlns:xlink="http://www.w3.org/1999/xlink"><filter id="a" color-interpolation-filters="sRGB" filterUnits="userSpaceOnUse" height="204.59" width="183.88" x="1.25954" y=".008678"><feFlood flood-opacity="0" result="BackgroundImageFix"/><feColorMatrix in="SourceAlpha" result="hardAlpha" type="matrix" values="0 0 0 0 0 0 0 0 0 0 0 0 0 0 0 0 0 0 127 0"/><feOffset dx="-13.6393" dy="15.9125"/><feGaussianBlur stdDeviation="12.5027"/><feColorMatrix type="matrix" values="0 0 0 0 0.316369 0 0 0 0 0.366988 0 0 0 0 0.353496 0 0 0 0.25741 0"/><feBlend in2="BackgroundImageFix" mode="normal" result="effect1_dropShadow_575_2196"/><feColorMatrix in="SourceAlpha" result="hardAlpha" type="matrix" values="0 0 0 0 0 0 0 0 0 0 0 0 0 0 0 0 0 0 127 0"/><feOffset dx="-6.81966" dy="6.81966"/><feGaussianBlur stdDeviation="5.68305"/><feColorMatrix type="matrix" values="0 0 0 0 0 0 0 0 0 0 0 0 0 0 0 0 0 0 0.144615 0"/><feBlend in2="effect1_dropShadow_575_2196" mode="normal" result="effect2_dropShadow_575_2196"/><feBlend in="SourceGraphic" in2="effect2_dropShadow_575_2196" mode="normal" result="shape"/></filter><clipPath id="b"><path d="m0 0h186.404v204.59h-186.404z"/></clipPath><g clip-path="url(#b)"><path clip-rule="evenodd" d="m94.337 26.1494 66.935 38.6448v77.2898l-66.935 38.644-66.9347-38.644v-77.2898z" fill-rule="evenodd" stroke="#00e599" stroke-width="1.47305"/><g filter="url(#a)"><path d="m106.839 9.10156 66.935 38.64474v77.2897l-66.935 38.645-66.9347-38.645v-77.2897z" fill="#000"/></g><path d="m106.839 9.10156 66.935 38.64474v77.2897l-66.935 38.645-66.9347-38.645v-77.2897z" fill="#f0f5f6"/><g clip-rule="evenodd" fill-rule="evenodd" stroke="#003" stroke-width="2.01633"><path d="m108.688 99.9292-2.065-2.0654c-2.917.3576-5.963-.5833-8.2008-2.8209-2.2376-2.2376-3.1785-5.2825-2.82-8.1995l-2.0739-2.0738c-.4253.0555-.8553.0828-1.2853.0828-2.0711 0-4.048-.6286-5.7097-1.7982l-4.6427.813.0057 8.3519 4.9334.8704c.4225 1.5676 1.0426 3.0947 1.8706 4.5382l-2.8708 4.0993 5.9035 5.904 4.1101-2.871c1.4387.823 2.9593 1.448 4.5339 1.875l.864 4.929h8.347l.822-4.634c-1.425-2.033-2.042-4.534-1.722-7.0008z" stroke-linecap="round"/><path d="m126.692 80.3096c-.427-1.5629-1.052-3.0844-1.875-4.5222l2.871-4.111-5.904-5.9026-4.099 2.8708c-1.438-.8233-2.96-1.4481-4.534-1.8753l-.869-4.9343h-8.358l-.817 4.6342c1.425 2.0333 2.041 4.5344 1.72 7.0025l2.075 2.0748c2.917-.3585 5.961.5834 8.198 2.82 2.236 2.2367 3.177 5.2797 2.82 8.1957l.688.6879 1.38 1.3813c.426-.0555.856-.0837 1.288-.0837 2.077 0 4.058.6323 5.721 1.8056l4.624-.8214.006-8.3519z"/><path d="m124.624 93.9156c-1.371-1.0858-3.033-1.6278-4.693-1.6278-.698 0-1.397.0959-2.074.2888l-16.974-16.9738c.65-2.2818.205-4.812-1.3349-6.7607-.1816-.2315-.3801-.4536-.5928-.6672-.1778-.1778-.3632-.3453-.5532-.5015-1.3926-1.1442-3.0995-1.7144-4.8045-1.7144-.3209 0-.6427.0197-.9617.0602-.4752.0602-.9456.1656-1.4029.3162l4.8487 4.8543-4.8337 4.8337-4.8534-4.8534c-.1525.4639-.2588.9362-.319 1.4133-.2541 2.0127.2992 4.1082 1.657 5.7624.1562.1891.3228.3735.5006.5514.2136.2136.4366.4112.6681.5937 1.37 1.0831 3.028 1.625 4.6859 1.625.6982 0 1.3964-.0959 2.0711-.2879l16.9737 16.9738c-.649 2.2833-.2 4.8153 1.342 6.7623.181.23.377.451.589.663.18.18.367.349.56.506 1.391 1.141 3.094 1.712 4.796 1.712.319 0 .638-.02.956-.061.479-.06.953-.166 1.415-.319l-4.853-4.853 4.833-4.8337 4.854 4.8537c.151-.46.257-.933.317-1.409.255-2.0088-.294-4.1043-1.65-5.7585-.157-.1929-.326-.3801-.506-.5599-.212-.2117-.432-.4074-.661-.589z" fill="#00e599" stroke-linecap="round"/></g></g></svg>

<svg width="187" height="205" viewBox="0 0 187 205" fill="none" xmlns="http://www.w3.org/2000/svg">
<g clip-path="url(#clip0_575_2196)">
<path fill-rule="evenodd" clip-rule="evenodd" d="M94.337 26.1494L161.272 64.7942V142.084L94.337 180.728L27.4023 142.084V64.7942L94.337 26.1494Z" stroke="#00E599" stroke-width="1.47305"/>
<g filter="url(#filter0_dd_575_2196)">
<path d="M106.839 9.10156L173.774 47.7463V125.036L106.839 163.681L39.9043 125.036V47.7463L106.839 9.10156Z" fill="black"/>
</g>
<path d="M106.839 9.10156L173.774 47.7463V125.036L106.839 163.681L39.9043 125.036V47.7463L106.839 9.10156Z" fill="#F0F5F6"/>
<path fill-rule="evenodd" clip-rule="evenodd" d="M108.688 99.9292L106.623 97.8638C103.706 98.2214 100.66 97.2805 98.4222 95.0429C96.1846 92.8053 95.2437 89.7604 95.6022 86.8434L93.5283 84.7696C93.103 84.8251 92.673 84.8524 92.243 84.8524C90.1719 84.8524 88.195 84.2238 86.5333 83.0542L81.8906 83.8672L81.8963 92.2191L86.8297 93.0895C87.2522 94.6571 87.8723 96.1842 88.7003 97.6277L85.8295 101.727L91.733 107.631L95.8431 104.76C97.2818 105.583 98.8024 106.208 100.377 106.635L101.241 111.564H109.588L110.41 106.93C108.985 104.897 108.368 102.396 108.688 99.9292Z" stroke="#000033" stroke-width="2.01633" stroke-linecap="round"/>
<path fill-rule="evenodd" clip-rule="evenodd" d="M126.692 80.3096C126.265 78.7467 125.64 77.2252 124.817 75.7874L127.688 71.6764L121.784 65.7738L117.685 68.6446C116.247 67.8213 114.725 67.1965 113.151 66.7693L112.282 61.835H103.924L103.107 66.4692C104.532 68.5025 105.148 71.0036 104.827 73.4717L106.902 75.5465C109.819 75.188 112.863 76.1299 115.1 78.3665C117.336 80.6032 118.277 83.6462 117.92 86.5622L118.608 87.2501L119.988 88.6314C120.414 88.5759 120.844 88.5477 121.276 88.5477C123.353 88.5477 125.334 89.18 126.997 90.3533L131.621 89.5319L131.627 81.18L126.692 80.3096Z" stroke="#000033" stroke-width="2.01633"/>
<path fill-rule="evenodd" clip-rule="evenodd" d="M124.624 93.9156C123.253 92.8298 121.591 92.2878 119.931 92.2878C119.233 92.2878 118.534 92.3837 117.857 92.5766L100.883 75.6028C101.533 73.321 101.088 70.7908 99.5481 68.8421C99.3665 68.6106 99.168 68.3885 98.9553 68.1749C98.7775 67.9971 98.5921 67.8296 98.4021 67.6734C97.0095 66.5292 95.3026 65.959 93.5976 65.959C93.2767 65.959 92.9549 65.9787 92.6359 66.0192C92.1607 66.0794 91.6903 66.1848 91.233 66.3354L96.0817 71.1897L91.248 76.0234L86.3946 71.17C86.2421 71.6339 86.1358 72.1062 86.0756 72.5833C85.8215 74.596 86.3748 76.6915 87.7326 78.3457C87.8888 78.5348 88.0554 78.7192 88.2332 78.8971C88.4468 79.1107 88.6698 79.3083 88.9013 79.4908C90.2713 80.5739 91.9293 81.1158 93.5872 81.1158C94.2854 81.1158 94.9836 81.0199 95.6583 80.8279L112.632 97.8017C111.983 100.085 112.432 102.617 113.974 104.564C114.155 104.794 114.351 105.015 114.563 105.227C114.743 105.407 114.93 105.576 115.123 105.733C116.514 106.874 118.217 107.445 119.919 107.445C120.238 107.445 120.557 107.425 120.875 107.384C121.354 107.324 121.828 107.218 122.29 107.065L117.437 102.212L122.27 97.3783L127.124 102.232C127.275 101.772 127.381 101.299 127.441 100.823C127.696 98.8142 127.147 96.7187 125.791 95.0645C125.634 94.8716 125.465 94.6844 125.285 94.5046C125.073 94.2929 124.853 94.0972 124.624 93.9156Z" fill="#00E599" stroke="#000033" stroke-width="2.01633" stroke-linecap="round"/>
</g>
<defs>
<filter id="filter0_dd_575_2196" x="1.25954" y="0.00867844" width="183.88" height="204.59" filterUnits="userSpaceOnUse" color-interpolation-filters="sRGB">
<feFlood flood-opacity="0" result="BackgroundImageFix"/>
<feColorMatrix in="SourceAlpha" type="matrix" values="0 0 0 0 0 0 0 0 0 0 0 0 0 0 0 0 0 0 127 0" result="hardAlpha"/>
<feOffset dx="-13.6393" dy="15.9125"/>
<feGaussianBlur stdDeviation="12.5027"/>
<feColorMatrix type="matrix" values="0 0 0 0 0.316369 0 0 0 0 0.366988 0 0 0 0 0.353496 0 0 0 0.25741 0"/>
<feBlend mode="normal" in2="BackgroundImageFix" result="effect1_dropShadow_575_2196"/>
<feColorMatrix in="SourceAlpha" type="matrix" values="0 0 0 0 0 0 0 0 0 0 0 0 0 0 0 0 0 0 127 0" result="hardAlpha"/>
<feOffset dx="-6.81966" dy="6.81966"/>
<feGaussianBlur stdDeviation="5.68305"/>
<feColorMatrix type="matrix" values="0 0 0 0 0 0 0 0 0 0 0 0 0 0 0 0 0 0 0.144615 0"/>
<feBlend mode="normal" in2="effect1_dropShadow_575_2196" result="effect2_dropShadow_575_2196"/>
<feBlend mode="normal" in="SourceGraphic" in2="effect2_dropShadow_575_2196" result="shape"/>
</filter>
<clipPath id="clip0_575_2196">
<rect width="186.404" height="204.59" fill="white"/>
</clipPath>
</defs>
</svg>
